X:160
%%pagewidth 9in
%%vocalfont Baskerville10Pro 15
T:Joan, to the maypole
M:2/4
L:1/8
K:G
%%score 1 2
V:1 clef-treble
V:2 clef-bass octave=-1
V:1
DD/D/|[DG]G/G/ [FA][EG]/[FA]/|B>B d>d&G2x2|[G(e]/d/)(c/B/) (c/B/)(A/G/)|
w:Joan, to the May-pole a-way let us on, The time is swift,* and* will* be*
V:2
DC|B,G,DD,|G,2B>B|[Gc]/B/A/G/ e/d/c/B/|
V:1
[FA]2 DD/D/|[DG]G/G/ [FA][EG]/[FA]/|[GB]2 d>d|[G(e]/d/)(c/B/) (c/B/)(A/G/)|G2||
w:gone, There go the lass-es a-way to the green, Where their beau-*ties* may* be* seen;
V:2
[Dd]2DC|B,G,DD,|G,2 B>B|[Gc]/B/A/G/ e/d/c/B/|[GB]2||
V:1
d<^c|d<D d<^c|d<D DD/E/|GG/A/ BA/G/|FE e<^d|
w:Bess,* Moll,* Kate,* Doll,* All the brave lass-es have lads to at-tend 'em, Hodge,*
V:2
(G2&[(A,E]2|F)z(G2 &D)x ([A,E]2|F)z [D,D][D,D]&D)x3|[G,G][G,G]/[A,A]/ [B,B][A,A]/[G,G]/|[F,F][E,E] (A2&x2([B,F]2|
V:1
e<E [Fe]<^d|e<E =DD/D/|GG/A/ BA/G/|FE||DD/D/|
w:Nick,* Tom,* Dick,* Jol-ly brave dancers,* and who can a-mend 'em. Joan to the 
V:2
[EG])z([B,FA]2|[EG])z [=D,=D][D,D]|[G,G][G,G]/[A,A]/ [B,B][A,A]/[G,G]/|[F,F][E,E]||[D,D][C,C]|
V:1
[DG]G/G/ [FA][EG]/[FA]/|B>B d>d&Gxx2|([Ge]/d/)(c/B/) (c/B/)(A/G/)|[FA]2 DD/D/|
w:May-pole a-way let us on, The time is swift* and* must* be* gone, There go the
V:2
[B,,B,][G,,G,][D,D]D,|z2B>B&({G,,/}G,4)-|c/B/A/G/ e/d/c/B/&G,4|d2B,2&DCx2|
V:1
[B,G]G/G/ [EA]G/A/|[^DFB]2 [=DBd][GBd]|([Gce]/d/)(c/B/) [Ec]/B/A/G/|[B,G]2||
w:Lass-es a-way to the Green, Where their beau-*ties* may* be* seen.
V:2
E2C2|B2G,G|C2C2|G2||

